X:60
T:Livery Yeomanry. RH.060
R:waltz
S:Rev.R.Harrison’s MS,c1815,Cumbria
O:England
A:Temple Sowerby,Cumbria
Z:vmp.Simon Wilson. Review PJH, 2008.
M:3/8
L:1/8
Q:3/8=60
K:D
FDF|A2d|edc|dfa|\
FDF|A2d|edc|d3:|!
|:(d/e/f)d|(e/f/g)e|ABc|dfa|\
(d/e/f)d|e/f/ge|ABc|d3:|

